contributed-vectors/mychart.svg

<svg width="192" height="192" version="1.1" viewBox="0 0 192 192" xmlns="http://www.w3.org/2000/svg">
 <g stroke-width="0">
  <path d="m18.078 32c-5.5836 0-10.078 4.4945-10.078 10.078v107.84c0 5.5836 4.4945 10.078 10.078 10.078h155.84c5.5836 0 10.078-4.4945 10.078-10.078v-94.182l-2.0625-0.052734h-112.64v-23.688h-51.219z" fill="#fff"/>
  <path d="m18.078 32c-5.5836 0-10.078 4.4945-10.078 10.078v24.32a0.074189 0.074189 45 0 0 0.074189 0.07419h62.046c1.2635 0 3.0081-0.72998 3.9546-1.5667 3.7565-3.3207 7.0938-4.8867 10.404-6.8287 1.0495-0.61562 2.8639-1.1551 4.0826-1.1551h93.616c0.58084 0 1.393-0.35394 1.5808-0.89819 0.32586-0.94443 0.32008-2.2612-0.0151-3.3876-0.20075-0.67469-0.85152-1.6332-1.332-2.1498-1.1553-1.242-3.1422-3.0192-4.8456-4.2988-1.24-0.93153-3.637-1.568-5.1907-1.5911-13.728-0.20456-73.338 0.04246-84.45 0.09082-0.98684 0.0043-2.5754-0.14201-3.5162-0.43842-5.7386-1.8079-7.8676-6.0329-9.4352-10.154-0.43829-1.1523-1.7706-2.0949-3.0036-2.0949zm66.474 34.552c-2.7588 3.1718-6.2246 5.3764-9.7112 7.4536-1.234 0.73519-3.402 1.326-4.8385 1.326h-62.002v74.59c0 5.571 4.4742 10.058 10.04 10.078 0.02089 8e-5 0.05476 7e-5 0.07565 7e-5h155.77c0.0196 0 0.0515 1e-5 0.0711-6e-5 5.5671-0.01903 10.043-4.5063 10.043-10.078v-85.711h-94.731c-1.6243 0-3.6517 1.1168-4.7169 2.3415z" fill="#ff837d"/>
  <path d="m80.285 87.078c-5.7945-0.01035-11.265 2.5885-13.768 8.1406-8.3183 18.458 16.074 34.557 29.482 48.891 13.409-14.333 37.801-30.432 29.482-48.891-5.0042-11.104-21.878-10.393-29.482-0.63086-3.8022-4.8813-9.9204-7.4994-15.715-7.5098z" fill="#fff" stroke-width="0"/>
 </g>
</svg>

<svg xmlns="http://www.w3.org/2000/svg" width="192" height="192"><g stroke-width="0"><path fill="#fff" d="M18.078 32A10.056 10.056 0 0 0 8 42.078v107.84a10.056 10.056 0 0 0 10.078 10.078h155.84a10.056 10.056 0 0 0 10.078-10.078V55.736l-2.063-.053H69.294V31.995H18.076z"/><path fill="#ff837d" d="M18.078 32A10.056 10.056 0 0 0 8 42.078v24.32a.074.074 45 0 0 .074.074H70.12c1.264 0 3.008-.73 3.955-1.567 3.756-3.32 7.094-4.886 10.404-6.828 1.05-.616 2.864-1.155 4.082-1.155h93.616c.581 0 1.393-.354 1.581-.898.326-.945.32-2.262-.015-3.388-.2-.675-.851-1.633-1.332-2.15-1.155-1.242-3.142-3.02-4.846-4.299-1.24-.931-3.637-1.568-5.19-1.59-13.728-.205-73.338.042-84.45.09-.987.004-2.576-.142-3.516-.438-5.739-1.808-7.868-6.033-9.436-10.154C74.535 32.942 73.203 32 71.97 32zm66.474 34.552c-2.759 3.172-6.225 5.376-9.711 7.454-1.234.735-3.402 1.326-4.839 1.326H8v74.59A10.055 10.055 0 0 0 18.04 160h155.917A10.056 10.056 0 0 0 184 149.922V64.21H89.27c-1.625 0-3.653 1.116-4.718 2.341z"/><path fill="#fff" d="M80.285 87.078c-5.795-.01-11.265 2.588-13.768 8.14-8.318 18.459 16.074 34.558 29.482 48.892 13.409-14.333 37.801-30.432 29.482-48.891-5.004-11.104-21.878-10.393-29.482-.631-3.802-4.882-9.92-7.5-15.715-7.51z"/></g></svg>
